X: 18907
T: Inchindown, The
R: jig
M: 6/8
K: Gmajor
|:GDE GAB|deg edB|AEA cAc|eag fed|
BGB dBd|gdg bgd|eab age|1 dBA G (BA):|2 dBA G (ef)||
|:gBc def|gdg bgd|ece efg|fdf fga|
gBc def|gdg bgd|eab age|1 dBA G (ef):|2 dba G3||

